brandFactory_export/2.Regular/Documento encriptado_2Regular.svg

<?xml version="1.0" encoding="UTF-8"?>
<svg width="24px" height="24px" viewBox="0 0 24 24" version="1.1" xmlns="http://www.w3.org/2000/svg" xmlns:xlink="http://www.w3.org/1999/xlink">
    <title>2.Regular/Documento encriptado_2Regular</title>
    <g id="Symbols" stroke="none" stroke-width="1" fill="none" fill-rule="evenodd">
        <g id="2.Regular/Documento-encriptado_2Regular" fill="#5CB615" fill-rule="nonzero">
            <path d="M19.0840336,22.1647059 C19.1983193,22.1647059 19.312605,22.0504202 19.312605,21.9630252 L19.312605,8.24201681 L16.5798319,8.24201681 C15.3831933,8.24201681 14.3478992,7.84537815 13.5882353,7.09915966 C12.8218487,6.34621849 12.4151261,5.31428571 12.4151261,4.1210084 L12.4151261,1.45882353 L4.69411765,1.45882353 C4.60672269,1.45882353 4.47226891,1.58991597 4.46554622,1.6605042 L4.46554622,21.9630252 C4.46554622,22.0336134 4.58319328,22.1647059 4.69411765,22.1647059 L19.0840336,22.1647059 Z M18.707563,6.78319328 L13.8470588,2.00336134 L13.8470588,4.1210084 C13.8470588,4.91092437 14.102521,5.57647059 14.5831933,6.05042017 C15.0705882,6.53109244 15.7630252,6.78319328 16.5798319,6.78319328 L18.707563,6.78319328 L18.707563,6.78319328 Z M20.687395,6.91092437 C20.7243697,6.99831933 20.7445378,7.09579832 20.7445378,7.19663866 L20.7445378,21.9630252 C20.7445378,22.8638655 19.9815126,23.6235294 19.0806723,23.6235294 L4.6907563,23.6235294 C3.80672269,23.6235294 3.02689076,22.8470588 3.02689076,21.9630252 L3.02689076,1.6605042 C3.02689076,0.789915966 3.82016807,0 4.6907563,0 L13.4504202,0 C13.7260504,0 13.9815126,0.107563025 14.1764706,0.299159664 L20.4319328,6.45042017 C20.5630252,6.57478992 20.6403361,6.7394958 20.687395,6.91092437 L20.687395,6.91092437 Z M5.08067227,6.07731092 C5.08067227,4.72941176 5.49747899,4.02352941 6.59327731,4.02352941 C7.68907563,4.02352941 8.10588235,4.72605042 8.10588235,6.07731092 C8.10588235,7.42857143 7.68907563,8.12436975 6.59327731,8.12436975 C5.49747899,8.12436975 5.08067227,7.42521008 5.08067227,6.07731092 Z M7.24537815,6.07731092 C7.24537815,4.98823529 7.0605042,4.62857143 6.59327731,4.62857143 C6.12605042,4.62857143 5.94117647,4.98487395 5.94117647,6.07731092 C5.94117647,7.1697479 6.12605042,7.46218487 6.59327731,7.46218487 C7.0605042,7.46218487 7.24537815,7.16638655 7.24537815,6.07731092 L7.24537815,6.07731092 Z M8.70756303,12.4739496 C8.70756303,11.1226891 9.12436975,10.4201681 10.2201681,10.4201681 C11.3159664,10.4201681 11.7327731,11.1226891 11.7327731,12.4739496 C11.7327731,13.8252101 11.3159664,14.5210084 10.2201681,14.5210084 C9.12436975,14.5210084 8.70756303,13.8218487 8.70756303,12.4739496 Z M10.8689076,12.4739496 C10.8689076,11.3848739 10.6840336,11.0252101 10.2168067,11.0252101 C9.74957983,11.0252101 9.56470588,11.3815126 9.56470588,12.4739496 C9.56470588,13.5630252 9.74957983,13.8588235 10.2168067,13.8588235 C10.687395,13.8588235 10.8689076,13.5630252 10.8689076,12.4739496 Z M12.6067227,12.4739496 C12.6067227,11.1226891 13.0235294,10.4201681 14.1193277,10.4201681 C15.2151261,10.4201681 15.6319328,11.1226891 15.6319328,12.4739496 C15.6319328,13.8252101 15.2151261,14.5210084 14.1193277,14.5210084 C13.0235294,14.5210084 12.6067227,13.8218487 12.6067227,12.4739496 Z M14.7680672,12.4739496 C14.7680672,11.3848739 14.5831933,11.0252101 14.1159664,11.0252101 C13.6487395,11.0252101 13.4638655,11.3815126 13.4638655,12.4739496 C13.4638655,13.5630252 13.6487395,13.8588235 14.1159664,13.8588235 C14.5865546,13.8588235 14.7680672,13.5630252 14.7680672,12.4739496 Z M12.5058824,18.6319328 C12.5058824,17.2840336 12.9226891,16.5781513 14.0184874,16.5781513 C15.1142857,16.5781513 15.5310924,17.2806723 15.5310924,18.6319328 C15.5310924,19.9831933 15.1142857,20.6789916 14.0184874,20.6789916 C12.9226891,20.6789916 12.5058824,19.9798319 12.5058824,18.6319328 Z M14.6672269,18.6319328 C14.6672269,17.5428571 14.4823529,17.1831933 14.0151261,17.1831933 C13.5478992,17.1831933 13.3630252,17.5394958 13.3630252,18.6319328 C13.3630252,19.7243697 13.5478992,20.0168067 14.0151261,20.0168067 C14.4857143,20.0168067 14.6672269,19.7210084 14.6672269,18.6319328 Z M5.53781513,13.8789916 L6.2,13.8789916 L6.2,11.1294118 L5.56806723,11.1294118 L5.56806723,10.5781513 C5.8,10.5445378 6.19327731,10.5109244 6.47226891,10.5109244 C6.87563025,10.5109244 7.01344538,10.6084034 7.01344538,10.897479 L7.01344538,13.8823529 L7.57142857,13.8823529 L7.57142857,14.4638655 L5.53781513,14.4638655 L5.53781513,13.8789916 L5.53781513,13.8789916 Z M9.22184874,7.50588235 L9.88403361,7.50588235 L9.88403361,4.75630252 L9.25210084,4.75630252 L9.25210084,4.20504202 C9.48403361,4.17142857 9.87731092,4.13781513 10.1563025,4.13781513 C10.5596639,4.13781513 10.697479,4.23529412 10.697479,4.52436975 L10.697479,7.5092437 L11.2554622,7.5092437 L11.2554622,8.0907563 L9.22184874,8.0907563 L9.22184874,7.50588235 Z M16.6067227,13.8789916 L17.2689076,13.8789916 L17.2689076,11.1294118 L16.6369748,11.1294118 L16.6369748,10.5781513 C16.8689076,10.5445378 17.2621849,10.5109244 17.5411765,10.5109244 C17.9445378,10.5109244 18.0823529,10.6084034 18.0823529,10.897479 L18.0823529,13.8823529 L18.6403361,13.8823529 L18.6403361,14.4638655 L16.6067227,14.4638655 L16.6067227,13.8789916 L16.6067227,13.8789916 Z M16.6067227,20.0235294 L17.2689076,20.0235294 L17.2689076,17.2739496 L16.6369748,17.2739496 L16.6369748,16.7226891 C16.8689076,16.6890756 17.2621849,16.6554622 17.5411765,16.6554622 C17.9445378,16.6554622 18.0823529,16.7529412 18.0823529,17.0420168 L18.0823529,20.0268908 L18.6403361,20.0268908 L18.6403361,20.6084034 L16.6067227,20.6084034 L16.6067227,20.0235294 L16.6067227,20.0235294 Z M9.28235294,20.0235294 L9.94453782,20.0235294 L9.94453782,17.2739496 L9.31260504,17.2739496 L9.31260504,16.7226891 C9.54453782,16.6890756 9.93781513,16.6554622 10.2168067,16.6554622 C10.6201681,16.6554622 10.7579832,16.7529412 10.7579832,17.0420168 L10.7579832,20.0268908 L11.3159664,20.0268908 L11.3159664,20.6084034 L9.28235294,20.6084034 L9.28235294,20.0235294 Z M5.63529412,20.0235294 L6.29747899,20.0235294 L6.29747899,17.2739496 L5.66554622,17.2739496 L5.66554622,16.7226891 C5.89747899,16.6890756 6.2907563,16.6554622 6.5697479,16.6554622 C6.97310924,16.6554622 7.11092437,16.7529412 7.11092437,17.0420168 L7.11092437,20.0268908 L7.66890756,20.0268908 L7.66890756,20.6084034 L5.63529412,20.6084034 L5.63529412,20.0235294 L5.63529412,20.0235294 Z" id="Documento-encriptado_2Regular"></path>
        </g>
    </g>
</svg>

<svg width="24" height="24" viewBox="0 0 24 24" xmlns="http://www.w3.org/2000/svg"><path d="M19.084 22.165c.114 0 .229-.115.229-.202V8.242H16.58c-1.197 0-2.232-.397-2.992-1.143-.766-.753-1.173-1.785-1.173-2.978V1.459h-7.72c-.088 0-.223.13-.23.202v20.302c0 .07.118.202.23.202h14.389zm-.376-15.382l-4.86-4.78v2.118c0 .79.255 1.455.735 1.93.488.48 1.18.732 1.997.732h2.128zm1.98.128a.735.735 0 01.057.286v14.766c0 .9-.763 1.66-1.664 1.66H4.69c-.884 0-1.664-.776-1.664-1.66V1.661C3.027.79 3.82 0 4.69 0h8.76c.275 0 .53.108.725.3l6.256 6.15c.131.125.208.29.255.46zM5.08 6.077c0-1.348.416-2.053 1.512-2.053s1.513.702 1.513 2.053c0 1.352-.417 2.047-1.513 2.047-1.096 0-1.512-.699-1.512-2.047zm2.164 0c0-1.089-.184-1.448-.652-1.448-.467 0-.652.356-.652 1.448 0 1.093.185 1.385.652 1.385.468 0 .652-.296.652-1.385zm1.463 6.397c0-1.351.416-2.054 1.512-2.054s1.513.703 1.513 2.054-.417 2.047-1.513 2.047c-1.096 0-1.512-.7-1.512-2.047zm2.16 0c0-1.09-.184-1.449-.651-1.449s-.652.357-.652 1.449c0 1.089.185 1.385.652 1.385.47 0 .652-.296.652-1.385zm1.739 0c0-1.351.417-2.054 1.512-2.054 1.096 0 1.513.703 1.513 2.054s-.417 2.047-1.513 2.047c-1.095 0-1.512-.7-1.512-2.047zm2.161 0c0-1.09-.185-1.449-.652-1.449s-.652.357-.652 1.449c0 1.089.185 1.385.652 1.385.47 0 .652-.296.652-1.385zm-2.262 6.158c0-1.348.417-2.054 1.512-2.054 1.096 0 1.513.703 1.513 2.054s-.417 2.047-1.513 2.047c-1.095 0-1.512-.7-1.512-2.047zm2.161 0c0-1.09-.185-1.449-.652-1.449s-.652.356-.652 1.449c0 1.092.185 1.385.652 1.385.47 0 .652-.296.652-1.385zm-9.13-4.753H6.2v-2.75h-.632v-.55c.232-.034.625-.068.904-.068.404 0 .541.097.541.386v2.985h.558v.582H5.538v-.585zm3.685-6.373h.662v-2.75h-.632v-.551c.232-.034.625-.067.904-.067.404 0 .541.097.541.386V7.51h.558v.582H9.222v-.585zm7.385 6.373h.662v-2.75h-.632v-.55c.232-.034.625-.068.904-.068.404 0 .541.097.541.386v2.985h.558v.582h-2.033v-.585zm0 6.145h.662v-2.75h-.632v-.551c.232-.034.625-.068.904-.068.404 0 .541.098.541.387v2.985h.558v.581h-2.033v-.584zm-7.325 0h.663v-2.75h-.632v-.551c.232-.034.625-.068.904-.068.403 0 .541.098.541.387v2.985h.558v.581H9.282v-.584zm-3.647 0h.662v-2.75h-.631v-.551c.231-.034.625-.068.904-.068.403 0 .54.098.54.387v2.985h.559v.581H5.635v-.584z" fill="#5CB615" fill-rule="nonzero"/></svg>
